Sources/FrostedUI/Resources/Icons.xcassets/microphoneOff12.imageset/microphone-off-12.svg

<svg width="12" height="12" viewBox="0 0 12 12" fill="none" xmlns="http://www.w3.org/2000/svg" data-fui-icon="true">
  <g clip-path="url(#clip0_5204_705)">
    <path
      d="M0.782227 0.219727C1.07512 -0.0731667 1.54988 -0.0731667 1.84277 0.219727L3.30566 1.68262C3.30637 1.68118 3.30789 1.68015 3.30859 1.67871L4.50586 2.87598C4.5057 2.87794 4.50504 2.87987 4.50488 2.88184L7.11816 5.49512C7.11923 5.49393 7.12101 5.49338 7.12207 5.49219L8.18164 6.55273C8.1807 6.55373 8.17867 6.55369 8.17773 6.55469L9.00977 7.38672C9.0107 7.3857 9.01176 7.38481 9.0127 7.38379L10.0732 8.44434C10.0723 8.44534 10.0713 8.44626 10.0703 8.44727L11.2178 9.59473C11.5106 9.88762 11.5106 10.3624 11.2178 10.6553C10.9249 10.9481 10.4501 10.9481 10.1572 10.6553L8.8877 9.38574C8.29554 9.7311 7.63045 9.96517 6.91992 10.0557C6.82398 10.0679 6.75 10.1484 6.75 10.2451V10.3125C6.75 10.4161 6.83395 10.5 6.9375 10.5H8.25C8.66421 10.5 9 10.8358 9 11.25C9 11.6642 8.66421 12 8.25 12H3.75C3.33579 12 3 11.6642 3 11.25C3 10.8358 3.33579 10.5 3.75 10.5H5.0625C5.16605 10.5 5.25 10.4161 5.25 10.3125V10.2451C5.25 10.1484 5.17602 10.0679 5.08008 10.0557C2.49699 9.72668 0.5 7.5221 0.5 4.84961C0.5 4.4354 0.835786 4.09961 1.25 4.09961C1.66421 4.09961 2 4.4354 2 4.84961C2 6.92068 3.67893 8.59961 5.75 8.59961H6.25C6.79385 8.59961 7.3101 8.48284 7.77637 8.27441L6.87109 7.36914C6.59555 7.4534 6.30341 7.5 6 7.5C4.39503 7.5 3.08441 6.23926 3.00391 4.6543L3 4.5V3.49805L0.782227 1.28027C0.489354 0.987401 0.489394 0.512625 0.782227 0.219727ZM10.75 4.09961C11.1642 4.09961 11.5 4.4354 11.5 4.84961C11.5 5.69342 11.3 6.49012 10.9463 7.19629L9.80176 6.05078C9.92929 5.67353 10 5.26991 10 4.84961C10 4.4354 10.3358 4.09961 10.75 4.09961ZM6 0C7.65685 0 9 1.34315 9 3V4.5C8.99997 4.73084 8.97127 4.95501 8.92188 5.1709L7.5 3.74902V3C7.5 2.17157 6.82843 1.5 6 1.5C5.78026 1.5 5.57185 1.54792 5.38379 1.63281L4.28809 0.537109C4.77366 0.198963 5.36343 0 6 0Z"
      fill="currentColor"
    />
  </g>
  <defs>
    <clipPath id="clip0_5204_705"><path fill="currentColor" d="M0 0H12V12H0z" /></clipPath>
  </defs>
</svg>

<svg xmlns="http://www.w3.org/2000/svg" width="12" height="12" fill="none" data-fui-icon="true" viewBox="0 0 12 12"><g clip-path="url(#a)"><path fill="currentColor" d="M.782.22a.75.75 0 0 1 1.06 0l1.464 1.463q0-.003.003-.004l1.197 1.197-.001.006 2.613 2.613.004-.003 1.06 1.06-.004.003.832.832.003-.003 1.06 1.06-.003.003 1.148 1.148a.75.75 0 0 1-1.06 1.06l-1.27-1.27a5.2 5.2 0 0 1-1.968.67.193.193 0 0 0-.17.19v.068c0 .103.084.187.188.187H8.25a.75.75 0 0 1 0 1.5h-4.5a.75.75 0 0 1 0-1.5h1.313a.187.187 0 0 0 .187-.187v-.068a.193.193 0 0 0-.17-.19A5.25 5.25 0 0 1 .5 4.85a.75.75 0 0 1 1.5 0A3.75 3.75 0 0 0 5.75 8.6h.5a3.7 3.7 0 0 0 1.526-.326l-.905-.905a3 3 0 0 1-3.867-2.715L3 4.5V3.498L.782 1.28a.75.75 0 0 1 0-1.06M10.75 4.1a.75.75 0 0 1 .75.75c0 .843-.2 1.64-.554 2.346L9.802 6.051C9.929 5.674 10 5.27 10 4.85a.75.75 0 0 1 .75-.75M6 0a3 3 0 0 1 3 3v1.5c0 .23-.029.455-.078.67L7.5 3.75V3a1.5 1.5 0 0 0-2.116-1.367L4.288.537A3 3 0 0 1 6 0"/></g><defs><clipPath id="a"><path fill="currentColor" d="M0 0h12v12H0z"/></clipPath></defs></svg>
